noteapp/public/style.svg

<svg xmlns="http://www.w3.org/2000/svg" version="1.1" xmlns:xlink="http://www.w3.org/1999/xlink" xmlns:svgjs="http://svgjs.dev/svgjs" width="1920" height="1080" preserveAspectRatio="none" viewBox="0 0 1920 1080">
    <g mask="url(&quot;#SvgjsMask1296&quot;)" fill="none">
        <rect width="1920" height="1080" x="0" y="0" fill="rgba(174, 159, 131, 0.5)"></rect>
        <path d="M1979.879,960.73C2081.152,957.2,2164.294,886.851,2211.69,797.283C2255.916,713.706,2249.913,616.616,2206.397,532.667C2158.562,440.386,2083.66,355.873,1979.879,350.09C1867.366,343.82,1760.275,406.544,1704.967,504.726C1650.602,601.234,1661.089,719.621,1718.278,814.482C1773.561,906.182,1872.869,964.46,1979.879,960.73" fill="rgba(255, 255, 255, 0.51)" class="triangle-float3"></path>
        <path d="M593.5674575162273 241.03840089445123L298.36197219197277 183.65626739797244 240.97983869549398 478.8617527222269 536.1853240197485 536.2438862187057z" fill="rgba(255, 255, 255, 0.51)" class="triangle-float2"></path>
        <path d="M263.105,589.346C367.094,598.239,485.233,589.647,541.87,501.982C601.876,409.102,578.501,286.498,518.962,193.318C463.962,107.242,365.122,60.555,263.105,65.709C169.376,70.444,91.978,133.96,48.421,217.089C8.047,294.143,12.812,385.096,56.271,460.453C99.769,535.878,176.353,581.927,263.105,589.346" fill="rgba(255, 255, 255, 0.51)" class="triangle-float2"></path>
        <path d="M1839.66,413.859C1905.722,415.025,1955.239,361.652,1989.105,304.919C2024.094,246.306,2050.544,175.692,2017.482,115.971C1983.67,54.896,1909.348,30.844,1839.66,34.97C1776.898,38.686,1724.399,79.538,1694.92,135.071C1667.317,187.07,1671.952,247.553,1699.078,299.802C1728.879,357.203,1774.994,412.718,1839.66,413.859" fill="rgba(255, 255, 255, 0.51)" class="triangle-float2"></path>
        <path d="M1424.134,735.453C1493.734,737.919,1561.47,702.06,1594.526,640.761C1626.177,582.067,1610.828,511.542,1575.313,455.102C1542.301,402.64,1486.117,369.674,1424.134,369.98C1362.684,370.284,1306.39,403.448,1275.523,456.584C1244.511,509.97,1244.411,574.898,1273.447,629.384C1304.409,687.484,1358.34,733.122,1424.134,735.453" fill="rgba(255, 255, 255, 0.51)" class="triangle-float3"></path>
        <path d="M441.557,524.643C504.305,528.86,570.074,507.144,602.454,453.23C635.633,397.986,626.609,327.87,592.616,273.123C560.488,221.379,502.459,194.856,441.557,194.095C379.134,193.315,313.098,214.129,283.815,269.263C255.766,322.074,282.79,382.982,314.215,433.857C343.577,481.393,385.81,520.896,441.557,524.643" fill="rgba(255, 255, 255, 0.51)" class="triangle-float3"></path>
        <path d="M2014.954,766.124C2119.687,772.494,2225.813,729.392,2279.959,639.515C2335.672,547.036,2332.42,427.692,2273.24,337.393C2218.841,254.389,2114.065,230.062,2014.954,235.16C1925.61,239.756,1843.327,284.125,1798.926,361.791C1754.852,438.886,1758.614,532.025,1800.462,610.351C1845.092,693.883,1920.422,760.374,2014.954,766.124" fill="rgba(255, 255, 255, 0.51)" class="triangle-float3"></path>
        <path d="M1852.408,1295.308C1928.557,1294.103,1988.66,1237.764,2025.769,1171.257C2061.788,1106.704,2073.352,1028.96,2036.906,964.647C1999.999,899.52,1927.065,859.877,1852.408,865.341C1785.14,870.264,1743.6,930.467,1709.422,988.614C1674.569,1047.909,1640.215,1114.56,1669.278,1176.897C1702.199,1247.511,1774.507,1296.541,1852.408,1295.308" fill="rgba(255, 255, 255, 0.51)" class="triangle-float3"></path>
        <path d="M789.7348595373238 730.2174397377609L844.7989850617703 910.3240788939364 1024.9056242179458 855.25995336949 969.8414986934994 675.1533142133144z" fill="rgba(255, 255, 255, 0.51)" class="triangle-float3"></path>
        <path d="M644.1194402612699 784.5218433858984L698.511375517354 1040.4157797044738 954.4053118359295 986.0238444483897 900.0133765798454 730.1299081298142z" fill="rgba(255, 255, 255, 0.51)" class="triangle-float2"></path>
        <path d="M694.926,275.258C759.837,277.436,830.226,263.315,863.677,207.644C897.878,150.725,884.32,77.314,846.77,22.547C813.708,-25.674,753.333,-35.836,694.926,-38.483C629.4,-41.453,552.49,-47.686,517.208,7.61C480.442,65.232,506.902,139.999,544.712,196.941C578.19,247.36,634.438,273.228,694.926,275.258" fill="rgba(255, 255, 255, 0.51)" class="triangle-float2"></path>
        <path d="M606.5501703607462 901.2389350786159L655.4432700960818 718.7674027268106 472.9717377442764 669.8743029914749 424.0786380089408 852.3458353432802z" fill="rgba(255, 255, 255, 0.51)" class="triangle-float1"></path>
        <path d="M1040.2771733041964 829.1857981699014L876.4242484800271 556.4887372619148 603.7271875720406 720.341662086084 767.5801123962099 993.0387229940707z" fill="rgba(255, 255, 255, 0.51)" class="triangle-float3"></path>
    </g>
    <defs>
        <mask id="SvgjsMask1296">
            <rect width="1920" height="1080" fill="#ffffff"></rect>
        </mask>
        <style>
            @keyframes float1 {
                    0%{transform: translate(0, 0)}
                    50%{transform: translate(-10px, 0)}
                    100%{transform: translate(0, 0)}
                }

                .triangle-float1 {
                    animation: float1 5s infinite;
                }

                @keyframes float2 {
                    0%{transform: translate(0, 0)}
                    50%{transform: translate(-5px, -5px)}
                    100%{transform: translate(0, 0)}
                }

                .triangle-float2 {
                    animation: float2 4s infinite;
                }

                @keyframes float3 {
                    0%{transform: translate(0, 0)}
                    50%{transform: translate(0, -10px)}
                    100%{transform: translate(0, 0)}
                }

                .triangle-float3 {
                    animation: float3 6s infinite;
                }
        </style>
    </defs>
</svg>

<svg xmlns="http://www.w3.org/2000/svg" width="1920" height="1080" preserveAspectRatio="none"><g fill="none" mask="url(&quot;#SvgjsMask1296&quot;)"><path fill="rgba(174, 159, 131, 0.5)" d="M0 0h1920v1080H0z"/><path fill="rgba(255, 255, 255, 0.51)" d="M1979.879 960.73c101.273-3.53 184.415-73.879 231.811-163.447 44.226-83.577 38.223-180.667-5.293-264.616-47.835-92.281-122.737-176.794-226.518-182.577-112.513-6.27-219.604 56.454-274.912 154.636-54.365 96.508-43.878 214.895 13.311 309.756 55.283 91.7 154.591 149.978 261.601 146.248" class="triangle-float3"/><path fill="rgba(255, 255, 255, 0.51)" d="m593.567 241.038-295.205-57.382-57.382 295.206 295.205 57.382z" class="triangle-float2"/><path fill="rgba(255, 255, 255, 0.51)" d="M263.105 589.346c103.989 8.893 222.128.301 278.765-87.364 60.006-92.88 36.631-215.484-22.908-308.664-55-86.076-153.84-132.763-255.857-127.609-93.729 4.735-171.127 68.251-214.684 151.38-40.374 77.054-35.609 168.007 7.85 243.364 43.498 75.425 120.082 121.474 206.834 128.893M1839.66 413.859c66.062 1.166 115.579-52.207 149.445-108.94 34.989-58.613 61.439-129.227 28.377-188.948-33.812-61.075-108.134-85.127-177.822-81.001-62.762 3.716-115.261 44.568-144.74 100.101-27.603 51.999-22.968 112.482 4.158 164.731 29.801 57.401 75.916 112.916 140.582 114.057" class="triangle-float2"/><path fill="rgba(255, 255, 255, 0.51)" d="M1424.134 735.453c69.6 2.466 137.336-33.393 170.392-94.692 31.651-58.694 16.302-129.219-19.213-185.659-33.012-52.462-89.196-85.428-151.179-85.122-61.45.304-117.744 33.468-148.611 86.604-31.012 53.386-31.112 118.314-2.076 172.8 30.962 58.1 84.893 103.738 150.687 106.069M441.557 524.643c62.748 4.217 128.517-17.499 160.897-71.413 33.179-55.244 24.155-125.36-9.838-180.107-32.128-51.744-90.157-78.267-151.059-79.028-62.423-.78-128.459 20.034-157.742 75.168-28.049 52.811-1.025 113.719 30.4 164.594 29.362 47.536 71.595 87.039 127.342 90.786M2014.954 766.124c104.733 6.37 210.859-36.732 265.005-126.609 55.713-92.479 52.461-211.823-6.719-302.122-54.399-83.004-159.175-107.331-258.286-102.233-89.344 4.596-171.627 48.965-216.028 126.631-44.074 77.095-40.312 170.234 1.536 248.56 44.63 83.532 119.96 150.023 214.492 155.773M1852.408 1295.308c76.149-1.205 136.252-57.544 173.361-124.051 36.019-64.553 47.583-142.297 11.137-206.61-36.907-65.127-109.841-104.77-184.498-99.306-67.268 4.923-108.808 65.126-142.986 123.273-34.853 59.295-69.207 125.946-40.144 188.283 32.921 70.614 105.229 119.644 183.13 118.411M789.735 730.217l55.064 180.107 180.107-55.064-55.065-180.107z" class="triangle-float3"/><path fill="rgba(255, 255, 255, 0.51)" d="m644.12 784.522 54.391 255.894 255.894-54.392-54.392-255.894zM694.926 275.258c64.911 2.178 135.3-11.943 168.751-67.614 34.201-56.919 20.643-130.33-16.907-185.097-33.062-48.221-93.437-58.383-151.844-61.03C629.4-41.453 552.49-47.686 517.208 7.61c-36.766 57.622-10.306 132.389 27.504 189.331 33.478 50.419 89.726 76.287 150.214 78.317" class="triangle-float2"/><path fill="rgba(255, 255, 255, 0.51)" d="m606.55 901.239 48.893-182.472-182.471-48.893-48.893 182.472z" class="triangle-float1"/><path fill="rgba(255, 255, 255, 0.51)" d="M1040.277 829.186 876.424 556.489 603.727 720.342 767.58 993.039z" class="triangle-float3"/></g>
    <defs>
        <mask id="SvgjsMask1296">
            <rect width="1920" height="1080" fill="#ffffff"></rect>
        </mask>
        <style>
            @keyframes float1 {
                    0%{transform: translate(0, 0)}
                    50%{transform: translate(-10px, 0)}
                    100%{transform: translate(0, 0)}
                }

                .triangle-float1 {
                    animation: float1 5s infinite;
                }

                @keyframes float2 {
                    0%{transform: translate(0, 0)}
                    50%{transform: translate(-5px, -5px)}
                    100%{transform: translate(0, 0)}
                }

                .triangle-float2 {
                    animation: float2 4s infinite;
                }

                @keyframes float3 {
                    0%{transform: translate(0, 0)}
                    50%{transform: translate(0, -10px)}
                    100%{transform: translate(0, 0)}
                }

                .triangle-float3 {
                    animation: float3 6s infinite;
                }
        </style>
    </defs>
</svg>
